assets/images/linkedin.svg

<?xml version="1.0" encoding="UTF-8"?>
<svg width="35px" height="36px" viewBox="0 0 35 36" version="1.1" xmlns="http://www.w3.org/2000/svg" xmlns:xlink="http://www.w3.org/1999/xlink">
    <!-- Generator: Sketch 52.6 (67491) - http://www.bohemiancoding.com/sketch -->
    <title>Group</title>
    <desc>Created with Sketch.</desc>
    <g id="Symbols" stroke="none" stroke-width="1" fill="none" fill-rule="evenodd">
        <g id="logos/linkedin">
            <g id="Group">
                <path d="M32.3822715,0.5 L2.61772853,0.5 C1.1634349,0.5 0,1.66666667 0,3.02777778 L0,32.9722222 C0,34.3333333 1.1634349,35.5 2.61772853,35.5 L32.3822715,35.5 C33.8365651,35.5 35,34.3333333 35,32.9722222 L35,3.02777778 C35,1.66666667 33.8365651,0.5 32.3822715,0.5 Z" id="Path" fill="#006192"></path>
                <path d="M5.38709677,12.7684825 L10.516129,12.7684825 L10.516129,29.5 L5.38709677,29.5 L5.38709677,12.7684825 Z M8,4.5 C9.64516129,4.5 11,5.8618677 11,7.5155642 C11,9.1692607 9.64516129,10.5311284 8,10.5311284 C6.35483871,10.5311284 5,9.1692607 5,7.5155642 C5,5.76459144 6.35483871,4.5 8,4.5 Z" id="Shape" fill="#FFFFFF" fill-rule="nonzero"></path>
                <path d="M14,12.9829545 L18.8862275,12.9829545 L18.8862275,15.2045455 L18.9820359,15.2045455 C19.6526946,13.8522727 21.3772455,12.5 23.8682635,12.5 C29.0419162,12.5 30,15.9772727 30,20.4204545 L30,29.5 L24.9221557,29.5 L24.9221557,21.3863636 C24.9221557,19.4545455 24.9221557,16.9431818 22.239521,16.9431818 C19.5568862,16.9431818 19.1736527,19.0681818 19.1736527,21.1931818 L19.1736527,29.4034091 L14.0958084,29.4034091 L14.0958084,12.9829545 L14,12.9829545 Z" id="Path" fill="#FFFFFF"></path>
            </g>
        </g>
    </g>
</svg>

<svg xmlns="http://www.w3.org/2000/svg" width="35" height="36"><title>Group</title><desc>Created with Sketch.</desc><g fill="none"><g><g><path id="Path" fill="#006192" d="M32.38.5H2.62C1.16.5 0 1.67 0 3.03v29.94c0 1.36 1.16 2.53 2.62 2.53h29.76c1.46 0 2.62-1.17 2.62-2.53V3.03C35 1.67 33.84.5 32.38.5z"/><path fill="#fff" fill-rule="nonzero" d="M5.4 12.77h5.12V29.5H5.4V12.77zM8 4.5c1.65 0 3 1.36 3 3.02 0 1.65-1.35 3-3 3s-3-1.35-3-3C5 5.76 6.35 4.5 8 4.5z"/><path fill="#fff" d="M14 12.98h4.9v2.22h.08c.67-1.35 2.4-2.7 4.9-2.7 5.16 0 6.12 3.48 6.12 7.92v9.08h-5.08v-8.1c0-1.95 0-4.46-2.68-4.46s-3.07 2.13-3.07 4.25v8.2H14.1V12.98H14z"/></g></g></g></svg>
